X:1
T:GB/7e/12 Dolly Vardon Style
T:GB/7e/12 Dolly Vardon Style
T:Noah Fisher Transcribed by Simon Furey and Lewis Jones
C:Noah Fisher
C:Transcribed by Simon Furey and Lewis Jones
L:1/8
M:4/4
K:G
V:1 treble 
V:1
 d | dddB d2 dB | cBcA F3 c | cccc c2 BA | GABc !fermata!d3 d | GABc d2 !fermata!gg | %6
 fdBd !fermata!f2 GA | BGAF GABc | dcBA !fermata!G3 G | d2 d2 d2 d2 | cBcA F3 c | cccc c2 BA | %12
 GABc !fermata!d3 d | GABc d2 !fermata!gg | fdGd !fermata!f2 GA | BGAF GABc | dcBA feaa G3 |] %17

